icon-themes/sifr_svg/cmd/sc_insertpagenumberfield.svg

<svg viewBox="0 0 16 16" xmlns="http://www.w3.org/2000/svg"><path d="m2 1v15h12v-11l-4-4zm2 2h5v3h3v8h-8zm2 4v1h-1v1h1v2h-1v1h1v1h1v-1h2v1h1v-1h1v-1h-1v-2h1v-1h-1v-1h-1v1h-2v-1zm1 2h2v2h-2z" fill="#555753"/></svg>

<svg xmlns="http://www.w3.org/2000/svg" viewBox="0 0 16 16">
  <path
     style="fill:#555753"
     d="M 2 1 L 2 16 L 14 16 L 14 5 L 10 1 L 2 1 z M 4 3 L 9 3 L 9 6 L 12 6 L 12 14 L 4 14 L 4 3 z M 6 7 L 6 8 L 5 8 L 5 9 L 6 9 L 6 11 L 5 11 L 5 12 L 6 12 L 6 13 L 7 13 L 7 12 L 9 12 L 9 13 L 10 13 L 10 12 L 11 12 L 11 11 L 10 11 L 10 9 L 11 9 L 11 8 L 10 8 L 10 7 L 9 7 L 9 8 L 7 8 L 7 7 L 6 7 z M 7 9 L 9 9 L 9 11 L 7 11 L 7 9 z "
     />
</svg>
